Flat Remix Dark/panel/indicator-keyboard-Hu.svg

<svg xmlns="http://www.w3.org/2000/svg" width="22" height="22" version="1.1">
 <defs>
  <style id="current-color-scheme" type="text/css">
   .ColorScheme-Text { color:#d3dae3; } .ColorScheme-Highlight { color:#5294e2; }
  </style>
 </defs>
 <rect style="opacity:0" width="22" height="22" x="0" y="0"/>
 <path style="fill:none;stroke:currentColor;stroke-width:1.99999976;stroke-linecap:round" class="ColorScheme-Text" d="m 4.9999989,10.999998 4.0000022,0 m 0,4.000002 0,-8.0000003 M 4.9999988,15 l 0,-8.0000003 0,0"/>
 <path style="fill:none;stroke:currentColor;stroke-width:1.99999976;stroke-linecap:round;stroke-linejoin:bevel" class="ColorScheme-Text" d="M 17.000004,7.0048001 17,13.0048 c 0,1.000449 -4e-6,2.000449 -1.000006,2.000449 -0.395448,0 -0.610938,0.0096 -0.999991,-4.48e-4 -0.383857,0.0015 -8e-6,4.48e-4 -1.000007,4.48e-4 -1.000002,0 -0.999995,-1 -0.999995,-2.000449 l 4e-6,-5.9999999"/>
</svg>

<svg xmlns="http://www.w3.org/2000/svg" width="12pt" height="12pt" version="1.1" viewBox="0 0 12 12">
 <g>
  <path style="fill:none;stroke-width:2;stroke-linecap:round;stroke:rgb(82.745098%,85.490196%,89.019608%)" d="M 5 11 L 9 11 M 9 15 L 9 7 M 5 15 L 5 7" transform="matrix(0.5,0,0,0.5,0.5,0.5)"/>
  <path style="fill:none;stroke-width:2;stroke-linecap:round;stroke-linejoin:bevel;stroke:rgb(82.745098%,85.490196%,89.019608%)" d="M 17 7.007812 L 17 13.007812 C 17 14.007812 17 15.007812 16 15.007812 C 15.601562 15.007812 15.390625 15.015625 15 15.007812 C 14.617188 15.007812 15 15.007812 14 15.007812 C 13 15.007812 13 14.007812 13 13.007812 L 13 7.007812" transform="matrix(0.5,0,0,0.5,0.5,0.5)"/>
 </g>
</svg>
